src/assets/icons/user-account-icon-blue.svg

<svg enable-background="new 0 0 20 20" viewBox="0 0 20 20" xmlns="http://www.w3.org/2000/svg"><path d="m10 0c-5.5 0-10 4.5-10 10s4.5 10 10 10 10-4.5 10-10-4.5-10-10-10zm0 3c1.7 0 3 1.3 3 3s-1.3 3-3 3-3-1.3-3-3 1.3-3 3-3zm0 14.2c-2.5 0-4.7-1.3-6-3.2 0-2 4-3.1 6-3.1s6 1.1 6 3.1c-1.3 1.9-3.5 3.2-6 3.2z" fill="#4a556b"/><path d="m-2-2h24v24h-24z" fill="none"/></svg>

<?xml version="1.0" encoding="utf-8"?>
<!-- Generator: Adobe Illustrator 21.1.0, SVG Export Plug-In . SVG Version: 6.00 Build 0)  -->
<svg version="1.1" id="Layer_1" xmlns="http://www.w3.org/2000/svg" xmlns:xlink="http://www.w3.org/1999/xlink" x="0px" y="0px"
	 viewBox="0 0 20 20" style="enable-background:new 0 0 20 20;" xml:space="preserve">
<style type="text/css">
	.st0{fill:#4a556b;}
	.st1{fill:none;}
</style>
<path class="st0" d="M10,0C4.5,0,0,4.5,0,10s4.5,10,10,10s10-4.5,10-10S15.5,0,10,0z M10,3c1.7,0,3,1.3,3,3s-1.3,3-3,3S7,7.7,7,6
	S8.3,3,10,3z M10,17.2c-2.5,0-4.7-1.3-6-3.2c0-2,4-3.1,6-3.1c2,0,6,1.1,6,3.1C14.7,15.9,12.5,17.2,10,17.2z"/>
<path class="st1" d="M-2-2h24v24H-2V-2z"/>
</svg>
